static/img/kroki/6824bb0e5856a4945052c0a567db904d.svg

<?xml version="1.0" encoding="us-ascii" standalone="no"?><svg xmlns="http://www.w3.org/2000/svg" xmlns:xlink="http://www.w3.org/1999/xlink" contentStyleType="text/css" height="252px" preserveAspectRatio="none" style="width:343px;height:252px;" version="1.1" viewBox="0 0 343 252" width="343px" zoomAndPan="magnify"><defs/><g><!--class azure_machine_learning_compute--><g id="elem_azure_machine_learning_compute"><rect codeLine="23" fill="#3D176E" height="39.7891" id="azure_machine_learning_compute" rx="2.5" ry="2.5" style="stroke:#000D19;stroke-width:0.5;" width="329" x="7" y="7"/><ellipse cx="22" cy="26.8945" fill="#ADD1B2" rx="11" ry="11" style="stroke:#181818;stroke-width:1.0;"/><path d="M24.9688,32.5352 Q24.3906,32.832 23.75,32.9727 Q23.1094,33.1289 22.4063,33.1289 Q19.9063,33.1289 18.5781,31.4883 Q17.2656,29.832 17.2656,26.707 Q17.2656,23.582 18.5781,21.9258 Q19.9063,20.2695 22.4063,20.2695 Q23.1094,20.2695 23.75,20.4258 Q24.4063,20.582 24.9688,20.8789 L24.9688,23.5977 Q24.3438,23.0195 23.75,22.7539 Q23.1563,22.4727 22.5313,22.4727 Q21.1875,22.4727 20.5,23.5508 Q19.8125,24.6133 19.8125,26.707 Q19.8125,28.8008 20.5,29.8789 Q21.1875,30.9414 22.5313,30.9414 Q23.1563,30.9414 23.75,30.6758 Q24.3438,30.3945 24.9688,29.8164 L24.9688,32.5352 Z " fill="#000000"/><text fill="#D9B8FF" font-family="Helvetica" font-size="17" lengthAdjust="spacing" textLength="287" x="41" y="32.7798">azure_machine_learning_compute</text></g><!--class azure_web_app--><g id="elem_azure_web_app"><rect codeLine="26" fill="#3D176E" height="39.7891" id="azure_web_app" rx="2.5" ry="2.5" style="stroke:#000D19;stroke-width:0.5;" width="171" x="86" y="106.79"/><ellipse cx="101" cy="126.6845" fill="#ADD1B2" rx="11" ry="11" style="stroke:#181818;stroke-width:1.0;"/><path d="M103.9688,132.3252 Q103.3906,132.622 102.75,132.7627 Q102.1094,132.9189 101.4063,132.9189 Q98.9063,132.9189 97.5781,131.2783 Q96.2656,129.622 96.2656,126.497 Q96.2656,123.372 97.5781,121.7158 Q98.9063,120.0595 101.4063,120.0595 Q102.1094,120.0595 102.75,120.2158 Q103.4063,120.372 103.9688,120.6689 L103.9688,123.3877 Q103.3438,122.8095 102.75,122.5439 Q102.1563,122.2627 101.5313,122.2627 Q100.1875,122.2627 99.5,123.3408 Q98.8125,124.4033 98.8125,126.497 Q98.8125,128.5908 99.5,129.6689 Q100.1875,130.7314 101.5313,130.7314 Q102.1563,130.7314 102.75,130.4658 Q103.3438,130.1845 103.9688,129.6064 L103.9688,132.3252 Z " fill="#000000"/><text fill="#D9B8FF" font-family="Helvetica" font-size="17" lengthAdjust="spacing" textLength="129" x="120" y="132.5698">azure_web_app</text></g><!--class azure_web_app_service_plan--><g id="elem_azure_web_app_service_plan"><rect codeLine="29" fill="#3D176E" height="39.7891" id="azure_web_app_service_plan" rx="2.5" ry="2.5" style="stroke:#000D19;stroke-width:0.5;" width="283" x="30" y="206.58"/><ellipse cx="45" cy="226.4745" fill="#ADD1B2" rx="11" ry="11" style="stroke:#181818;stroke-width:1.0;"/><path d="M47.9688,232.1152 Q47.3906,232.412 46.75,232.5527 Q46.1094,232.7089 45.4063,232.7089 Q42.9063,232.7089 41.5781,231.0683 Q40.2656,229.412 40.2656,226.287 Q40.2656,223.162 41.5781,221.5058 Q42.9063,219.8495 45.4063,219.8495 Q46.1094,219.8495 46.75,220.0058 Q47.4063,220.162 47.9688,220.4589 L47.9688,223.1777 Q47.3438,222.5995 46.75,222.3339 Q46.1563,222.0527 45.5313,222.0527 Q44.1875,222.0527 43.5,223.1308 Q42.8125,224.1933 42.8125,226.287 Q42.8125,228.3808 43.5,229.4589 Q44.1875,230.5214 45.5313,230.5214 Q46.1563,230.5214 46.75,230.2558 Q47.3438,229.9745 47.9688,229.3964 L47.9688,232.1152 Z " fill="#000000"/><text fill="#D9B8FF" font-family="Helvetica" font-size="17" lengthAdjust="spacing" textLength="241" x="64" y="232.3598">azure_web_app_service_plan</text></g><!--link azure_machine_learning_compute to azure_web_app--><g id="link_azure_machine_learning_compute_azure_web_app"><path codeLine="32" d="M171.5,47.22 C171.5,64.36 171.5,83.27 171.5,100.41 " fill="none" id="azure_machine_learning_compute-to-azure_web_app" style="stroke:#1A83AF;stroke-width:2.0;"/><polygon fill="#1A83AF" points="171.5,106.41,175.5,97.41,171.5,101.41,167.5,97.41,171.5,106.41" style="stroke:#1A83AF;stroke-width:2.0;"/></g><!--link azure_web_app to azure_web_app_service_plan--><g id="link_azure_web_app_azure_web_app_service_plan"><path codeLine="33" d="M171.5,147.01 C171.5,164.15 171.5,183.06 171.5,200.2 " fill="none" id="azure_web_app-to-azure_web_app_service_plan" style="stroke:#1A83AF;stroke-width:2.0;"/><polygon fill="#1A83AF" points="171.5,206.2,175.5,197.2,171.5,201.2,167.5,197.2,171.5,206.2" style="stroke:#1A83AF;stroke-width:2.0;"/></g><!--SRC=[XP9DQy9048Rl-HKBdWNJqAgNGYf8Uv5IUoibJ7PdpMBsWzbLqTB_NgrjsIIDNlTzcEUTOIibaA5sOSyqwXB99twjZ0C2pN8YkvlPsX8RI0ao6xV3kJNXAh00ZUmHwoq6nQ5Dl5QAhmrwpswYw07uUaLsOyHvV20m_XYX2H4rgy7xF0HIvIPWL4PCoucKRR8zT929T7o77SoIGFf1HgEHIATjvAhgujv_n58TaANnqHOsOATcH_5DNMnv8gAIdKL_yzwEpo24CYjs6xszd3kHGMgyBoiGTdUY9TG-rlY0X3Ri7SuwM-5q8kJuN_Yf3qxuwNGC3Xl2GWElbC6YHY1pj1VSQdVy1-mZIJuRv0xB0fph3GgFj5KS2rU3ELDN5CEtGPfFidp-FhnlpagQodwm8Ks-0000]--></g></svg>

<svg xmlns="http://www.w3.org/2000/svg" width="343" height="252" viewBox="0 0 343 252"><rect width="329" height="39.789" x="7" y="7" fill="#3D176E" rx="2.5" ry="2.5" style="stroke:#000d19;stroke-width:.5"/><circle cx="22" cy="26.895" r="11" fill="#ADD1B2" style="stroke:#181818;stroke-width:1"/><path d="M24.969 32.535q-.578.297-1.219.438-.64.156-1.344.156-2.5 0-3.828-1.64-1.312-1.657-1.312-4.782t1.312-4.781q1.328-1.656 3.828-1.656.703 0 1.344.156.656.156 1.219.453v2.719q-.625-.578-1.219-.844-.594-.281-1.219-.281-1.343 0-2.031 1.078-.687 1.062-.687 3.156t.687 3.172q.688 1.062 2.031 1.062.625 0 1.219-.265.594-.281 1.219-.86z"/><text x="41" y="32.78" fill="#D9B8FF" font-family="Helvetica" font-size="17" textLength="287">azure_machine_learning_compute</text><rect width="171" height="39.789" x="86" y="106.79" fill="#3D176E" rx="2.5" ry="2.5" style="stroke:#000d19;stroke-width:.5"/><circle cx="101" cy="126.684" r="11" fill="#ADD1B2" style="stroke:#181818;stroke-width:1"/><path d="M103.969 132.325q-.578.297-1.219.438-.64.156-1.344.156-2.5 0-3.828-1.64-1.312-1.657-1.312-4.782t1.312-4.781q1.328-1.656 3.828-1.656.703 0 1.344.156.656.156 1.219.453v2.719q-.625-.579-1.219-.844-.594-.281-1.219-.281-1.344 0-2.031 1.078-.687 1.062-.687 3.156t.687 3.172q.688 1.062 2.031 1.062.625 0 1.219-.265.594-.281 1.219-.86z"/><text x="120" y="132.57" fill="#D9B8FF" font-family="Helvetica" font-size="17" textLength="129">azure_web_app</text><rect width="283" height="39.789" x="30" y="206.58" fill="#3D176E" rx="2.5" ry="2.5" style="stroke:#000d19;stroke-width:.5"/><circle cx="45" cy="226.475" r="11" fill="#ADD1B2" style="stroke:#181818;stroke-width:1"/><path d="M47.969 232.115q-.578.297-1.219.438-.64.156-1.344.156-2.5 0-3.828-1.64-1.312-1.657-1.312-4.782t1.312-4.781q1.328-1.656 3.828-1.656.703 0 1.344.156.656.156 1.219.453v2.719q-.625-.578-1.219-.844-.594-.281-1.219-.281-1.343 0-2.031 1.078-.687 1.062-.687 3.156t.687 3.172q.688 1.062 2.031 1.062.625 0 1.219-.265.594-.281 1.219-.86z"/><text x="64" y="232.36" fill="#D9B8FF" font-family="Helvetica" font-size="17" textLength="241">azure_web_app_service_plan</text><path fill="none" d="M171.5 47.22v53.19" style="stroke:#1a83af;stroke-width:2"/><path fill="#1A83AF" d="m171.5 106.41 4-9-4 4-4-4z" style="stroke:#1a83af;stroke-width:2"/><path fill="none" d="M171.5 147.01v53.19" style="stroke:#1a83af;stroke-width:2"/><path fill="#1A83AF" d="m171.5 206.2 4-9-4 4-4-4z" style="stroke:#1a83af;stroke-width:2"/></svg>
